icons/communication/comment-minus-24.svg

<svg width="24" height="24" viewBox="0 0 24 24" fill="none" xmlns="http://www.w3.org/2000/svg">
<path d="M15.25 9H8.75C8.33579 9 8 9.33579 8 9.75C8 10.1642 8.33579 10.5 8.75 10.5H15.25C15.6642 10.5 16 10.1642 16 9.75C16 9.33579 15.6642 9 15.25 9Z" fill="black"/>
<path fill-rule="evenodd" clip-rule="evenodd" d="M1 3.75C1 2.7835 1.7835 2 2.75 2H21.25C22.2165 2 23 2.7835 23 3.75V16.25C23 17.2165 22.2165 18 21.25 18H11.1406C11.0778 18 11.0173 18.0236 10.9712 18.0662L7.09724 21.6374C6.29633 22.3757 5 21.8076 5 20.7183V18H2.75C1.7835 18 1 17.2165 1 16.25V3.75ZM2.75 3.5C2.61193 3.5 2.5 3.61193 2.5 3.75V16.25C2.5 16.3881 2.61193 16.5 2.75 16.5H5.5C6.05228 16.5 6.5 16.9477 6.5 17.5V20.1478L9.95446 16.9633C10.2776 16.6654 10.7011 16.5 11.1406 16.5H21.25C21.3881 16.5 21.5 16.3881 21.5 16.25V3.75C21.5 3.61193 21.3881 3.5 21.25 3.5H2.75Z" fill="black"/>
</svg>

<svg xmlns="http://www.w3.org/2000/svg" width="24" height="24"><path d="M15.25 9h-6.5a.75.75 0 000 1.5h6.5a.75.75 0 000-1.5z"/><path fill-rule="evenodd" d="M1 3.75C1 2.784 1.784 2 2.75 2h18.5c.966 0 1.75.784 1.75 1.75v12.5A1.75 1.75 0 0121.25 18H11.14a.25.25 0 00-.169.066l-3.874 3.571c-.8.739-2.097.17-2.097-.919V18H2.75A1.75 1.75 0 011 16.25V3.75zm1.75-.25a.25.25 0 00-.25.25v12.5c0 .138.112.25.25.25H5.5a1 1 0 011 1v2.648l3.454-3.185a1.75 1.75 0 011.187-.463H21.25a.25.25 0 00.25-.25V3.75a.25.25 0 00-.25-.25H2.75z"/></svg>
